imagens/Elementos/telegram1.svg

<svg width="80" height="80" viewBox="0 0 80 80" fill="none" xmlns="http://www.w3.org/2000/svg">
<path d="M40 0C17.9019 0 0 17.9045 0 40C0 62.0955 17.9045 80 40 80C62.0981 80 80 62.0955 80 40C80 17.9045 62.0955 0 40 0ZM59.6465 27.4039L53.0813 58.3406C52.5961 60.5342 51.2903 61.0658 49.4684 60.0335L39.4684 52.6632L34.6452 57.3084C34.1135 57.84 33.6619 58.2916 32.6297 58.2916L33.3394 48.1135L51.871 31.3703C52.6787 30.6606 51.6929 30.2581 50.6271 30.9677L27.7239 45.3858L17.8529 42.3045C15.7084 41.6284 15.6594 40.16 18.3045 39.1277L56.8697 24.2555C58.6606 23.6103 60.2245 24.6916 59.6439 27.4013L59.6465 27.4039Z" fill="#D32E5E"/>
</svg>

<svg width="80" height="80" fill="none" xmlns="http://www.w3.org/2000/svg"><path d="M40 0C17.902 0 0 17.904 0 40s17.904 40 40 40c22.098 0 40-17.904 40-40S62.096 0 40 0Zm19.647 27.404L53.08 58.34c-.485 2.193-1.79 2.725-3.613 1.692l-10-7.37-4.823 4.645c-.532.532-.983.984-2.015.984l.71-10.178L51.87 31.37c.808-.71-.178-1.112-1.244-.402L27.724 45.386l-9.871-3.082c-2.145-.676-2.194-2.144.451-3.176L56.87 24.256c1.79-.646 3.355.436 2.774 3.145l.003.003Z" fill="#D32E5E"/></svg>
